X:224
T:Angeline the Baker
Z:Jack Campin, http://www.campin.me.uk/
F:Jack Campin's Nine-Note Tunebook
% last edit 03-02-2013
M:4/4
L:1/8
Q:1/4=120
K:DMix
GE|D2E2 G3 D|E2G4   GE|D2E2 G3 D|E6
GE|D2E2 G3 A|B2A2 G3 A|B2A2 G2E2|D6:|
Bc|d2B2 A2GA|BcBA G2Bc|d2B2 A2G2|E6
Bc|d2B2 A2GA|BcBA G2GA|B2A2 G2E2|D6:|

